ui/StatusQ/src/assets/img/icons/network/Network=Hermez.svg

<svg fill="none" height="500" viewBox="0 0 503 500" width="503" xmlns="http://www.w3.org/2000/svg"><path d="m0 250c0-138.071 113.429-250 251.5-250s251.5 111.929 251.5 250-113.429 250-251.5 250-251.5-111.929-251.5-250z" fill="#7b3fe4"/><g fill="#fff"><path d="m383.936 142.027-109.367-63.1761c-7.834-4.4892-16.705-6.8509-25.734-6.8509s-17.9 2.3617-25.734 6.8509l-109.367 63.1761c-7.826 4.518-14.3244 11.017-18.8416 18.843s-6.8943 16.704-6.8924 25.74v126.61c.0653 8.972 2.4746 17.769 6.9883 25.522 4.514 7.752 10.9757 14.188 18.7457 18.676l109.367 63.176c7.824 4.516 16.7 6.893 25.734 6.893s17.91-2.377 25.734-6.893l109.367-63.176c7.827-4.52 14.324-11.018 18.84-18.844 4.52-7.826 6.897-16.704 6.894-25.74v-126.61c-.064-8.97-2.474-17.768-6.99-25.521-4.513-7.753-10.975-14.191-18.744-18.676zm-270.202 44.583c-.007-4.523 1.179-8.969 3.438-12.888s5.511-7.174 9.428-9.436l109.368-63.111c3.907-2.2747 8.346-3.4729 12.867-3.4729 4.52 0 8.96 1.1982 12.867 3.4729l109.367 63.111c3.861 2.229 7.077 5.423 9.332 9.269 2.258 3.845 3.474 8.211 3.535 12.669v12.867c-.035 10.016-4.033 19.612-11.12 26.688-7.089 7.077-16.691 11.059-26.708 11.076h-194.546c-13.637-.032-26.914 4.371-37.828 12.545zm270.202 126.224c.007 4.523-1.18 8.968-3.438 12.886-2.258 3.921-5.511 7.177-9.429 9.438l-109.367 63.112c-3.912 2.258-8.35 3.448-12.867 3.448s-8.955-1.19-12.867-3.448l-109.368-63.112c-3.861-2.229-7.077-5.423-9.333-9.27-2.255-3.844-3.473-8.209-3.533-12.668v-12.867c.034-10.016 4.032-19.612 11.121-26.689 7.088-7.076 16.69-11.059 26.707-11.075h194.546c13.635.033 26.914-4.371 37.828-12.545z"/><path d="m189.004 180.177h24.962v37.378h25.734v-37.378c0-6.825-2.711-13.37-7.537-18.196s-11.372-7.537-18.197-7.537h-24.962c-6.824 0-13.37 2.711-18.196 7.537s-7.537 11.371-7.537 18.196v37.378h25.733z"/><path d="m213.966 319.268h-24.962v-37.378h-25.733v37.378c0 6.825 2.711 13.371 7.537 18.196 4.826 4.826 11.372 7.537 18.196 7.537h24.962c6.825 0 13.371-2.711 18.197-7.537 4.826-4.825 7.537-11.371 7.537-18.196v-37.378h-25.734z"/><path d="m290.395 180.177h25.026v37.378h25.733v-37.378c0-6.825-2.711-13.37-7.537-18.196-4.825-4.826-11.371-7.537-18.196-7.537h-25.026c-6.825 0-13.371 2.711-18.197 7.537s-7.537 11.371-7.537 18.196v37.378h25.734z"/><path d="m315.421 319.268h-25.026v-37.378h-25.734v37.378c0 6.825 2.711 13.371 7.537 18.196 4.826 4.826 11.372 7.537 18.197 7.537h25.026c6.825 0 13.371-2.711 18.196-7.537 4.826-4.825 7.537-11.371 7.537-18.196v-37.378h-25.733z"/></g></svg>

<svg width="503" height="500" viewBox="0 0 503 500" fill="none" xmlns="http://www.w3.org/2000/svg">
<path d="M0 250C0 111.929 113.429 0 251.5 0C389.571 0 503 111.929 503 250C503 388.071 389.571 500 251.5 500C113.429 500 0 388.071 0 250Z" fill="#7B3FE4"/>
<path d="M383.936 142.027L274.569 78.8509C266.735 74.3617 257.864 72 248.835 72C239.806 72 230.935 74.3617 223.101 78.8509L113.734 142.027C105.908 146.545 99.4096 153.044 94.8924 160.87C90.3752 168.696 87.9981 177.574 88 186.61V313.22C88.0653 322.192 90.4746 330.989 94.9883 338.742C99.5023 346.494 105.964 352.93 113.734 357.418L223.101 420.594C230.925 425.11 239.801 427.487 248.835 427.487C257.869 427.487 266.745 425.11 274.569 420.594L383.936 357.418C391.763 352.898 398.26 346.4 402.776 338.574C407.296 330.748 409.673 321.87 409.67 312.834V186.224C409.606 177.254 407.196 168.456 402.68 160.703C398.167 152.95 391.705 146.512 383.936 142.027ZM113.734 186.61C113.727 182.087 114.913 177.641 117.172 173.722C119.431 169.803 122.683 166.548 126.6 164.286L235.968 101.175C239.875 98.9003 244.314 97.7021 248.835 97.7021C253.355 97.7021 257.795 98.9003 261.702 101.175L371.069 164.286C374.93 166.515 378.146 169.709 380.401 173.555C382.659 177.4 383.875 181.766 383.936 186.224V199.091C383.901 209.107 379.903 218.703 372.816 225.779C365.727 232.856 356.125 236.838 346.108 236.855H151.562C137.925 236.823 124.648 241.226 113.734 249.4V186.61ZM383.936 312.834C383.943 317.357 382.756 321.802 380.498 325.72C378.24 329.641 374.987 332.897 371.069 335.158L261.702 398.27C257.79 400.528 253.352 401.718 248.835 401.718C244.318 401.718 239.88 400.528 235.968 398.27L126.6 335.158C122.739 332.929 119.523 329.735 117.267 325.888C115.012 322.044 113.794 317.679 113.734 313.22V300.353C113.768 290.337 117.766 280.741 124.855 273.664C131.943 266.588 141.545 262.605 151.562 262.589H346.108C359.743 262.622 373.022 258.218 383.936 250.044V312.834Z" fill="white"/>
<path d="M189.004 180.177H213.966V217.555H239.7V180.177C239.7 173.352 236.989 166.807 232.163 161.981C227.337 157.155 220.791 154.444 213.966 154.444H189.004C182.18 154.444 175.634 157.155 170.808 161.981C165.982 166.807 163.271 173.352 163.271 180.177V217.555H189.004V180.177Z" fill="white"/>
<path d="M213.966 319.268H189.004V281.89H163.271V319.268C163.271 326.093 165.982 332.639 170.808 337.464C175.634 342.29 182.18 345.001 189.004 345.001H213.966C220.791 345.001 227.337 342.29 232.163 337.464C236.989 332.639 239.7 326.093 239.7 319.268V281.89H213.966V319.268Z" fill="white"/>
<path d="M290.395 180.177H315.421V217.555H341.154V180.177C341.154 173.352 338.443 166.807 333.617 161.981C328.792 157.155 322.246 154.444 315.421 154.444H290.395C283.57 154.444 277.024 157.155 272.198 161.981C267.372 166.807 264.661 173.352 264.661 180.177V217.555H290.395V180.177Z" fill="white"/>
<path d="M315.421 319.268H290.395V281.89H264.661V319.268C264.661 326.093 267.372 332.639 272.198 337.464C277.024 342.29 283.57 345.001 290.395 345.001H315.421C322.246 345.001 328.792 342.29 333.617 337.464C338.443 332.639 341.154 326.093 341.154 319.268V281.89H315.421V319.268Z" fill="white"/>
</svg>
